lib/flags/m/LB.svg

<svg xmlns="http://www.w3.org/2000/svg" fill="none" viewBox="0 0 20 15"><mask id="LB_svg__a" width="20" height="15" x="0" y="0" mask-type="alpha" maskUnits="userSpaceOnUse"><path fill="#fff" d="M0 0H20V15H0z"/></mask><g fill-rule="evenodd" clip-rule="evenodd" mask="url(#LB_svg__a)"><path fill="#F50101" d="M20 0H0V3.75H20V0ZM20 11.25H0V15H20V11.25Z"/><path fill="#F7FCFF" d="M0 3.75H20V11.25H0V3.75Z"/><path fill="#52AB0B" d="M13.4468 7.8207C13.4934 8.36279 11.4929 7.59579 11.4929 7.81284C11.4929 8.02989 13.6359 8.41099 13.6323 8.89688C13.6288 9.38276 11.0912 8.75824 11.6603 8.97674C12.2293 9.19523 13.4511 9.71832 13.3122 10.0442C13.0156 10.7402 11.0459 9.56138 10.8821 9.79378C10.6177 10.1686 12.3356 11.0429 12.3211 11.1265C12.2931 11.2867 11.1478 10.8747 10.8821 11.2074C10.667 11.1467 10.5676 10.8571 10.5008 10.8187L10.0781 5.36655C10.0781 5.36655 10.4576 10.4999 9.97267 10.6476C9.48771 10.7952 8.14055 11.2441 8.10135 11.0199C8.08676 10.9363 9.72342 10.1686 9.45903 9.79378C9.2643 9.51754 7.28919 10.4971 7.16317 9.92989C6.60182 9.52523 8.98114 9.17507 8.98114 8.76125C8.98114 8.34738 6.80451 9.25106 7.0649 8.67497C7.32529 8.09889 9.06785 7.89263 9.10035 7.81284C9.15979 7.66693 7.16317 8.03999 7.16317 7.81284C7.16317 7.38303 8.35828 7.29846 9.10035 6.91166C9.1442 6.47028 7.30016 7.3462 7.16317 6.99237C7.02619 6.63855 9.52015 5.7219 9.45903 5.65049C9.36252 5.53772 7.35257 6.04658 7.68404 5.77936C8.32736 5.26073 9.58306 4.55549 9.872 4.36738C9.872 4.36738 9.9068 4.2964 9.94399 4.32049C9.98127 4.2964 10.0222 4.27002 10.0222 4.27002C10.0222 4.27002 10.0222 4.71379 10.0161 4.36738C10.0099 4.02097 12.9596 5.53675 12.9931 5.92101C13.032 6.3699 11.1705 5.58259 11.2143 6.02397C11.5927 6.25843 12.669 6.71215 13.1137 6.91166C13.3154 7.00215 11.6276 6.72012 11.6632 6.8586C11.7541 7.2115 13.3982 7.25532 13.4468 7.8207Z"/></g></svg>

<svg xmlns="http://www.w3.org/2000/svg" fill="none" viewBox="0 0 20 15"><mask id="LB_svg__a" width="20" height="15" x="0" y="0" maskUnits="userSpaceOnUse"><path fill="#fff" d="M0 0h20v15H0z"/></mask><g fill-rule="evenodd" clip-rule="evenodd" mask="url(#LB_svg__a)"><path fill="#F50101" d="M20 0H0v3.75h20V0zm0 11.25H0V15h20v-3.75z"/><path fill="#F7FCFF" d="M0 3.75h20v7.5H0v-7.5z"/><path fill="#52AB0B" d="M13.447 7.82c.046.543-1.954-.224-1.954-.007s2.143.598 2.14 1.084c-.004.486-2.542-.139-1.973.08.57.218 1.791.741 1.652 1.067-.296.696-2.266-.483-2.43-.25-.264.375 1.454 1.249 1.44 1.333-.029.16-1.174-.252-1.44.08-.215-.06-.314-.35-.381-.388l-.423-5.452s.38 5.133-.105 5.28c-.485.148-1.832.597-1.872.373-.014-.084 1.622-.851 1.358-1.226-.195-.276-2.17.703-2.296.136-.561-.405 1.818-.755 1.818-1.169 0-.414-2.176.49-1.916-.086.26-.576 2.003-.782 2.035-.862.06-.146-1.937.227-1.937 0 0-.43 1.195-.514 1.937-.901.044-.442-1.8.434-1.937.08-.137-.353 2.357-1.27 2.296-1.341-.096-.113-2.106.396-1.775.128.643-.518 1.9-1.223 2.188-1.412 0 0 .035-.07.072-.046.037-.025.078-.05.078-.05s0 .443-.006.096c-.006-.346 2.944 1.17 2.977 1.554.039.449-1.822-.338-1.779.103.379.234 1.455.688 1.9.888.201.09-1.486-.192-1.45-.053.09.353 1.734.396 1.783.962z"/></g></svg>
